vectors/google-wallet/google-wallet.svg

<svg version="1.1" xmlns="http://www.w3.org/2000/svg" xmlns:xlink="http://www.w3.org/1999/xlink" viewBox="0 0 256 273">
		<g>
				<path d="M99.6205714,122.294857 C84.1142857,100.937143 62.6102857,82.2125714 38.1805714,69.1931429 C34.5234286,67.1451429 30.2811429,66.1211429 26.0388571,66.1211429 C16.5302857,66.1211429 7.89942857,71.2411429 3.36457143,79.7257143 C-3.36457143,92.16 1.46285714,107.812571 13.8971429,114.395429 C51.4925714,134.582857 75.776,172.909714 78.7017143,217.380571 C78.7017143,217.380571 78.7017143,217.234286 78.7017143,217.234286 C78.2628571,212.260571 79.1405714,207.433143 81.3348571,202.898286 C81.6274286,202.313143 82.0662857,201.581714 82.5051429,200.850286 C94.208,181.540571 100.498286,159.305143 100.498286,136.484571 C100.498286,131.657143 100.059429,126.976 99.6205714,122.294857" fill="#1476C6" />
				<path d="M248.539429,74.0205714 C244.004571,54.1257143 237.275429,34.816 228.498286,16.384 C223.817143,6.58285714 213.723429,0.146285714 202.898286,0.146285714 C198.656,0.146285714 194.56,1.024 190.756571,2.92571429 C176.566857,9.65485714 170.569143,26.624 177.298286,40.6674286 C191.634286,71.0948571 198.802286,103.131429 198.802286,136.484571 C198.802286,169.837714 191.634286,201.874286 177.590857,231.716571 C177.444571,232.155429 174.957714,237.421714 174.957714,243.565714 C174.957714,245.321143 175.104,247.808 175.689143,250.148571 C177.590857,258.194286 182.710857,265.508571 191.195429,269.458286 C194.998857,271.213714 199.094857,272.237714 203.337143,272.237714 C213.723429,272.237714 223.232,266.532571 228.205714,257.462857 C233.910857,246.784 239.616,232.886857 244.589714,214.893714 C246.198857,209.481143 247.515429,204.361143 248.685714,198.948571 C253.220571,178.614857 255.707429,157.842286 255.707429,136.484571 C255.561143,115.419429 253.074286,94.208 248.539429,74.0205714" fill="#47AE33" />
				<path d="M128.731429,44.3245714 C128.292571,43.4468571 127.707429,42.7154286 127.122286,41.984 C125.220571,39.4971429 123.026286,37.4491429 120.393143,35.84 C116.150857,33.0605714 111.030857,31.4514286 105.764571,31.4514286 C101.376,31.4514286 99.1817143,32.0365714 96.1097143,33.2068571 C92.8914286,34.5234286 89.5268571,36.2788571 86.4548571,39.4971429 C83.3828571,42.7154286 81.6274286,45.9337143 80.3108571,49.4445714 C77.6777143,56.32 78.1165714,65.2434286 82.5051429,72.5577143 C91.8674286,87.6251429 97.4262857,104.886857 99.4742857,122.587429 C100.059429,127.268571 100.352,132.096 100.352,136.777143 C100.352,159.597714 94.208,181.833143 82.3588571,201.142857 C81.92,201.874286 81.6274286,202.459429 81.1885714,203.190857 C78.848,207.725714 78.1165714,212.845714 78.5554286,217.673143 C79.2868571,225.865143 83.8217143,233.618286 91.4285714,238.299429 C93.3302857,239.469714 95.5245714,240.347429 97.5725714,241.078857 C100.059429,241.810286 102.692571,242.249143 105.325714,242.249143 C114.834286,242.249143 123.465143,237.421714 128.438857,229.229714 C143.36,204.8 151.990857,177.005714 153.892571,148.48 C154.185143,144.676571 154.331429,140.726857 154.331429,136.923429 C154.477714,103.862857 145.554286,71.9725714 128.731429,44.3245714" fill="#ED114C" />
				<path d="M177.444571,231.716571 C191.634286,201.874286 198.802286,169.837714 198.802286,136.484571 C198.802286,125.074286 198.070857,116.736 197.485714,111.323429 C178.907429,81.6274286 151.990857,55.0034286 120.393143,35.6937143 C120.393143,35.6937143 121.124571,36.1325714 121.124571,36.2788571 C123.318857,37.888 125.074286,39.4971429 127.122286,41.984 C127.561143,42.5691429 128.292571,43.4468571 128.731429,44.3245714 C145.554286,72.1188571 154.331429,103.862857 154.331429,136.484571 C154.331429,140.434286 154.185143,144.237714 153.892571,148.041143 C167.350857,173.641143 174.665143,202.752 174.665143,233.325714 C174.665143,235.812571 174.665143,239.616 174.665143,242.541714 C174.811429,239.323429 175.542857,235.958857 176.713143,233.033143 C177.152,232.594286 177.298286,232.155429 177.444571,231.716571" fill="#FBBF16" />
		</g>
</svg>

<svg xmlns="http://www.w3.org/2000/svg" viewBox="0 0 256 273"><path d="M99.62 122.295c-15.506-21.358-37.01-40.082-61.44-53.102-3.657-2.048-7.899-3.072-12.141-3.072-9.509 0-18.14 5.12-22.674 13.605-6.73 12.434-1.902 28.087 10.532 34.67 37.596 20.187 61.879 58.514 64.805 102.985v-.147c-.44-4.973.439-9.8 2.633-14.336.292-.585.731-1.316 1.17-2.048a124.171 124.171 0 0017.993-64.365c0-4.828-.439-9.509-.877-14.19" fill="#1476C6"/><path d="M248.54 74.02a277.44 277.44 0 00-20.042-57.636c-4.68-9.801-14.775-16.238-25.6-16.238-4.242 0-8.338.878-12.141 2.78-14.19 6.729-20.188 23.698-13.459 37.741 14.336 30.428 21.504 62.464 21.504 95.818 0 33.353-7.168 65.39-21.211 95.232-.146.438-2.633 5.705-2.633 11.849 0 1.755.146 4.242.731 6.583 1.902 8.045 7.022 15.36 15.506 19.31 3.804 1.755 7.9 2.779 12.142 2.779 10.386 0 19.895-5.705 24.869-14.775 5.705-10.679 11.41-24.576 16.384-42.57a212.614 212.614 0 004.096-15.944c4.535-20.334 7.021-41.107 7.021-62.464-.146-21.066-2.633-42.277-7.168-62.464" fill="#47AE33"/><path d="M128.731 44.325c-.438-.878-1.024-1.61-1.609-2.341-1.901-2.487-4.096-4.535-6.729-6.144-4.242-2.78-9.362-4.389-14.628-4.389-4.389 0-6.583.586-9.655 1.756-3.219 1.316-6.583 3.072-9.655 6.29-3.072 3.218-4.828 6.437-6.144 9.948-2.633 6.875-2.194 15.798 2.194 23.113 9.362 15.067 14.921 32.329 16.97 50.03.584 4.68.877 9.508.877 14.19 0 22.82-6.144 45.055-17.993 64.365-.439.731-.732 1.316-1.17 2.048-2.341 4.535-3.072 9.655-2.634 14.482.732 8.192 5.267 15.945 12.874 20.626 1.901 1.17 4.096 2.048 6.144 2.78 2.486.731 5.12 1.17 7.753 1.17 9.508 0 18.14-4.827 23.113-13.02 14.921-24.429 23.552-52.223 25.454-80.749.292-3.803.438-7.753.438-11.557.147-33.06-8.777-64.95-25.6-92.598" fill="#ED114C"/><path d="M177.445 231.717c14.19-29.843 21.357-61.88 21.357-95.232 0-11.41-.731-19.749-1.316-25.162-18.579-29.696-45.495-56.32-77.093-75.63 0 0 .732.44.732.586 2.194 1.609 3.95 3.218 5.997 5.705.44.585 1.17 1.463 1.61 2.34 16.822 27.795 25.6 59.539 25.6 92.16 0 3.95-.147 7.754-.44 11.557 13.459 25.6 20.773 54.711 20.773 85.285v9.216a29.875 29.875 0 012.048-9.509c.439-.439.585-.878.732-1.316" fill="#FBBF16"/></svg>
